wp-content/themes/watts/images/pa-04.svg

<svg enable-background="new 0 0 110 100" height="100" viewBox="0 0 110 100" width="110" xmlns="http://www.w3.org/2000/svg" xmlns:xlink="http://www.w3.org/1999/xlink"><linearGradient id="a" gradientUnits="userSpaceOnUse" x1="22.2361" x2="87.7236" y1="17.2639" y2="82.7514"><stop offset="0" stop-color="#109bfb"/><stop offset="1" stop-color="#1d3ec0"/></linearGradient><path d="m12.7 45.1-3.7-.4c-.1 1.2-.2 2.3-.3 3.5l3.8.1c0-1 .1-2.1.2-3.2zm6.4-18.1-3.2-2c-.6 1-1.2 2-1.8 3l3.3 1.8c.6-.9 1.2-1.9 1.7-2.8zm-6.6 24.6-3.8.1c0 1.2.1 2.3.3 3.5l3.7-.4c-.1-1.1-.2-2.2-.2-3.2zm1.4-12.8-3.6-1c-.3 1.1-.6 2.3-.8 3.4l3.7.7c.2-1 .4-2.1.7-3.1zm.9 25.4-3.6 1.3c.4 1.1.8 2.2 1.3 3.3l3.4-1.5c-.3-1.1-.7-2.1-1.1-3.1zm-1.6-6.2-3.7.7c.2 1.1.5 2.3.8 3.4l3.6-1c-.3-1-.5-2.1-.7-3.1zm4.2 12.1-3.3 1.8c.5 1 1.1 2 1.8 3l3.2-2c-.6-1-1.2-1.9-1.7-2.8zm3.5 5.4-3 2.3c.7.9 1.4 1.9 2.2 2.7l2.8-2.5c-.7-.8-1.4-1.7-2-2.5zm2.1-53.6-2.8-2.5c-.8.9-1.5 1.8-2.2 2.7l3 2.3c.6-.9 1.3-1.7 2-2.5zm34.5-14.4.2-3.8c-1.2-.1-2.3-.1-3.5-.1l.1 3.8c1 0 2.1.1 3.2.1zm35.8 23.9 3.4-1.6c-.5-1-1.1-2.1-1.7-3.1l-3.3 1.9c.6.9 1.1 1.9 1.6 2.8zm-3.3-5.5 3.1-2.1c-.7-1-1.4-1.9-2.1-2.8l-2.9 2.4c.7.7 1.3 1.6 1.9 2.5zm7.1 17.8 3.7-.6c-.2-1.2-.4-2.3-.6-3.4l-3.7.8c.2 1.1.4 2.1.6 3.2zm-11.1-22.8 2.7-2.6c-.8-.8-1.6-1.7-2.5-2.5l-2.5 2.8c.8.7 1.6 1.5 2.3 2.3zm9.7 16.5 3.6-1.1c-.3-1.1-.7-2.2-1.2-3.3l-3.5 1.4c.4 1 .7 2 1.1 3zm-24.3-30.7c-1.1-.4-2.2-.8-3.3-1.1l-1.1 3.6c1 .3 2.1.6 3.1 1zm-26.7 2-.9-3.7c-1.1.3-2.3.6-3.4 1l1.2 3.6c1-.3 2.1-.6 3.1-.9zm-22.2 74.3c.8.8 1.7 1.6 2.6 2.4l2.4-2.9c-.8-.7-1.6-1.4-2.4-2.2zm28.5-75.4-.3-3.8c-1.2.1-2.3.3-3.5.5l.6 3.7c1.1-.1 2.2-.3 3.2-.4zm13.7-2.9c-1.1-.2-2.3-.4-3.5-.6l-.5 3.7c1.1.1 2.1.3 3.2.5zm-48.6 28-3.4-1.5c-.5 1.1-.9 2.2-1.3 3.3l3.6 1.3c.2-1.1.6-2.1 1.1-3.1zm67.5 48.8 2.5 2.8c.9-.8 1.7-1.6 2.5-2.5l-2.7-2.6c-.7.8-1.5 1.6-2.3 2.3zm-5-66.9c.9.6 1.8 1.2 2.6 1.9l2.3-3c-.9-.7-1.9-1.4-2.8-2.1zm9.4 62.2 2.9 2.4c.7-.9 1.4-1.8 2.1-2.8l-3.1-2.2c-.5.9-1.2 1.8-1.9 2.6zm-15-65.4c1 .5 1.9 1 2.9 1.5l1.9-3.3c-1-.6-2.1-1.1-3.1-1.6zm-.1 77.2 1.6 3.4c1.1-.5 2.1-1 3.1-1.6l-1.8-3.3c-1 .6-1.9 1.1-2.9 1.5zm5.6-3.1 2.1 3.1c1-.6 1.9-1.3 2.8-2.1l-2.3-3c-.8.7-1.7 1.4-2.6 2zm18-25.9 3.7.8c.3-1.1.5-2.3.7-3.4l-3.7-.6c-.3 1.1-.5 2.1-.7 3.2zm4.7-13-3.8.3c.1 1 .1 2.1.1 3.1 0 1.1 0 2.2-.1 3.2l3.8.3c.1-1.2.1-2.3.1-3.5 0-1.1 0-2.3-.1-3.4zm-6.7 19.1 3.5 1.4c.4-1.1.8-2.2 1.2-3.3l-3.6-1.1c-.3 1-.7 2-1.1 3zm-71.9-48.8 2.6 2.7c.8-.7 1.6-1.5 2.4-2.2l-2.4-2.9c-.9.8-1.8 1.6-2.6 2.4zm69.1 54.6 3.3 1.9c.6-1 1.1-2 1.7-3.1l-3.4-1.7c-.5 1-1.1 2-1.6 2.9zm-57.7-62.8 1.7 3.4c1-.5 1.9-.9 2.9-1.4l-1.5-3.5c-1 .5-2.1 1-3.1 1.5zm-.2 82.5c1 .5 2.1 1 3.2 1.5l1.5-3.5c-1-.4-2-.9-2.9-1.4zm33.1-.3 1.1 3.6c1.1-.3 2.2-.7 3.3-1.1l-1.3-3.5c-1.1.3-2.1.7-3.1 1zm-39.1-3.3c.9.7 1.9 1.3 2.9 1.9l2-3.2c-.9-.6-1.8-1.2-2.7-1.8zm.2-75.2 2.2 3.1c.9-.6 1.8-1.2 2.7-1.8l-2-3.2c-1 .5-2 1.2-2.9 1.9zm19.1 83.3c1.1.2 2.3.4 3.5.5l.4-3.8c-1.1-.1-2.1-.2-3.2-.4zm7.9-3.1c-.3 0-.6 0-.9 0l-.1 3.8h.9c.9 0 1.7 0 2.6-.1l-.2-3.8c-.7 0-1.5.1-2.3.1zm5.6-.4.5 3.7c1.2-.2 2.3-.3 3.5-.6l-.8-3.7c-1.1.3-2.2.5-3.2.6zm-20.3 1.8c1.1.4 2.2.7 3.4 1l.9-3.7c-1-.3-2.1-.6-3.1-.9zm2.6-44.9h4.8l-.2.2 10.4 10.4-10.4 10.4 2.7 2.7 10.4-10.4 10.4 10.4 2.7-2.7-10.4-10.4 10.4-10.4-2.7-2.7-10.4 10.4-8-8h2c4.1 0 7.5-3.4 7.5-7.5v-5.6c0-4.1-3.4-7.5-7.5-7.5h-15.3v1.9h-.3v31.4h3.8zm15.5-13.2v5.6c0 2.1-1.7 3.7-3.7 3.7h-11.8v-13.1h11.8c2 .1 3.7 1.8 3.7 3.8z" fill="url(#a)"/></svg>

<svg version="1.1" id="Layer_1" xmlns="http://www.w3.org/2000/svg" xmlns:xlink="http://www.w3.org/1999/xlink" x="0px" y="0px"
	 width="110px" height="100px" viewBox="0 0 110 100" style="enable-background:new 0 0 110 100;" xml:space="preserve">
<style type="text/css">
	.st0{fill:url(#SVGID_1_);}
	.st1{fill:url(#SVGID_2_);}
	.st2{fill:url(#SVGID_3_);}
	.st3{fill:url(#SVGID_4_);}
	.st4{fill:url(#SVGID_5_);}
	.st5{fill:url(#SVGID_6_);}
	.st6{fill:url(#SVGID_7_);}
	.st7{fill:url(#SVGID_8_);}
</style>
<linearGradient id="SVGID_1_" gradientUnits="userSpaceOnUse" x1="22.2361" y1="17.2639" x2="87.7236" y2="82.7514">
	<stop  offset="0" style="stop-color:#109BFB"/>
	<stop  offset="1" style="stop-color:#1D3EC0"/>
</linearGradient>
<path class="st0" d="M12.7,45.1L9,44.7c-0.1,1.2-0.2,2.3-0.3,3.5l3.8,0.1C12.5,47.3,12.6,46.2,12.7,45.1z M19.1,27l-3.2-2
	c-0.6,1-1.2,2-1.8,3l3.3,1.8C18,28.9,18.6,27.9,19.1,27z M12.5,51.6l-3.8,0.1c0,1.2,0.1,2.3,0.3,3.5l3.7-0.4
	C12.6,53.7,12.5,52.6,12.5,51.6z M13.9,38.8l-3.6-1c-0.3,1.1-0.6,2.3-0.8,3.4l3.7,0.7C13.4,40.9,13.6,39.8,13.9,38.8z M14.8,64.2
	l-3.6,1.3c0.4,1.1,0.8,2.2,1.3,3.3l3.4-1.5C15.6,66.2,15.2,65.2,14.8,64.2z M13.2,58l-3.7,0.7c0.2,1.1,0.5,2.3,0.8,3.4l3.6-1
	C13.6,60.1,13.4,59,13.2,58z M17.4,70.1l-3.3,1.8c0.5,1,1.1,2,1.8,3l3.2-2C18.5,71.9,17.9,71,17.4,70.1z M20.9,75.5l-3,2.3
	c0.7,0.9,1.4,1.9,2.2,2.7l2.8-2.5C22.2,77.2,21.5,76.3,20.9,75.5z M23,21.9l-2.8-2.5c-0.8,0.9-1.5,1.8-2.2,2.7l3,2.3
	C21.6,23.5,22.3,22.7,23,21.9z M57.5,7.5l0.2-3.8c-1.2-0.1-2.3-0.1-3.5-0.1l0.1,3.8C55.3,7.4,56.4,7.5,57.5,7.5z M93.3,31.4l3.4-1.6
	c-0.5-1-1.1-2.1-1.7-3.1l-3.3,1.9C92.3,29.5,92.8,30.5,93.3,31.4z M90,25.9l3.1-2.1c-0.7-1-1.4-1.9-2.1-2.8l-2.9,2.4
	C88.8,24.1,89.4,25,90,25.9z M97.1,43.7l3.7-0.6c-0.2-1.2-0.4-2.3-0.6-3.4l-3.7,0.8C96.7,41.6,96.9,42.6,97.1,43.7z M86,20.9
	l2.7-2.6c-0.8-0.8-1.6-1.7-2.5-2.5l-2.5,2.8C84.5,19.3,85.3,20.1,86,20.9z M95.7,37.4l3.6-1.1c-0.3-1.1-0.7-2.2-1.2-3.3l-3.5,1.4
	C95,35.4,95.3,36.4,95.7,37.4z M71.4,6.7c-1.1-0.4-2.2-0.8-3.3-1.1L67,9.2c1,0.3,2.1,0.6,3.1,1L71.4,6.7z M44.7,8.7L43.8,5
	c-1.1,0.3-2.3,0.6-3.4,1l1.2,3.6C42.6,9.3,43.7,9,44.7,8.7z M22.5,83c0.8,0.8,1.7,1.6,2.6,2.4l2.4-2.9c-0.8-0.7-1.6-1.4-2.4-2.2
	L22.5,83z M51,7.6l-0.3-3.8c-1.2,0.1-2.3,0.3-3.5,0.5L47.8,8C48.9,7.9,50,7.7,51,7.6z M64.7,4.7c-1.1-0.2-2.3-0.4-3.5-0.6l-0.5,3.7
	c1.1,0.1,2.1,0.3,3.2,0.5L64.7,4.7z M16.1,32.7l-3.4-1.5c-0.5,1.1-0.9,2.2-1.3,3.3l3.6,1.3C15.2,34.7,15.6,33.7,16.1,32.7z
	 M83.6,81.5l2.5,2.8c0.9-0.8,1.7-1.6,2.5-2.5l-2.7-2.6C85.2,80,84.4,80.8,83.6,81.5z M78.6,14.6c0.9,0.6,1.8,1.2,2.6,1.9l2.3-3
	c-0.9-0.7-1.9-1.4-2.8-2.1L78.6,14.6z M88,76.8l2.9,2.4c0.7-0.9,1.4-1.8,2.1-2.8l-3.1-2.2C89.4,75.1,88.7,76,88,76.8z M73,11.4
	c1,0.5,1.9,1,2.9,1.5l1.9-3.3c-1-0.6-2.1-1.1-3.1-1.6L73,11.4z M72.9,88.6l1.6,3.4c1.1-0.5,2.1-1,3.1-1.6l-1.8-3.3
	C74.8,87.7,73.9,88.2,72.9,88.6z M78.5,85.5l2.1,3.1c1-0.6,1.9-1.3,2.8-2.1l-2.3-3C80.3,84.2,79.4,84.9,78.5,85.5z M96.5,59.6
	l3.7,0.8c0.3-1.1,0.5-2.3,0.7-3.4l-3.7-0.6C96.9,57.5,96.7,58.5,96.5,59.6z M101.2,46.6l-3.8,0.3c0.1,1,0.1,2.1,0.1,3.1
	c0,1.1,0,2.2-0.1,3.2l3.8,0.3c0.1-1.2,0.1-2.3,0.1-3.5C101.3,48.9,101.3,47.7,101.2,46.6z M94.5,65.7l3.5,1.4
	c0.4-1.1,0.8-2.2,1.2-3.3l-3.6-1.1C95.3,63.7,94.9,64.7,94.5,65.7z M22.6,16.9l2.6,2.7c0.8-0.7,1.6-1.5,2.4-2.2l-2.4-2.9
	C24.3,15.3,23.4,16.1,22.6,16.9z M91.7,71.5l3.3,1.9c0.6-1,1.1-2,1.7-3.1l-3.4-1.7C92.8,69.6,92.2,70.6,91.7,71.5z M34,8.7l1.7,3.4
	c1-0.5,1.9-0.9,2.9-1.4l-1.5-3.5C36.1,7.7,35,8.2,34,8.7z M33.8,91.2c1,0.5,2.1,1,3.2,1.5l1.5-3.5c-1-0.4-2-0.9-2.9-1.4L33.8,91.2z
	 M66.9,90.9l1.1,3.6c1.1-0.3,2.2-0.7,3.3-1.1L70,89.9C68.9,90.2,67.9,90.6,66.9,90.9z M27.8,87.6c0.9,0.7,1.9,1.3,2.9,1.9l2-3.2
	c-0.9-0.6-1.8-1.2-2.7-1.8L27.8,87.6z M28,12.4l2.2,3.1c0.9-0.6,1.8-1.2,2.7-1.8l-2-3.2C29.9,11,28.9,11.7,28,12.4z M47.1,95.7
	c1.1,0.2,2.3,0.4,3.5,0.5l0.4-3.8c-1.1-0.1-2.1-0.2-3.2-0.4L47.1,95.7z M55,92.6c-0.3,0-0.6,0-0.9,0L54,96.4c0.3,0,0.6,0,0.9,0
	c0.9,0,1.7,0,2.6-0.1l-0.2-3.8C56.6,92.5,55.8,92.6,55,92.6z M60.6,92.2l0.5,3.7c1.2-0.2,2.3-0.3,3.5-0.6l-0.8-3.7
	C62.7,91.9,61.6,92.1,60.6,92.2z M40.3,94c1.1,0.4,2.2,0.7,3.4,1l0.9-3.7c-1-0.3-2.1-0.6-3.1-0.9L40.3,94z M42.9,49.1h4.8l-0.2,0.2
	l10.4,10.4L47.5,70.1l2.7,2.7l10.4-10.4L71,72.8l2.7-2.7L63.3,59.7l10.4-10.4L71,46.6L60.6,57l-8-8h2c4.1,0,7.5-3.4,7.5-7.5v-5.6
	c0-4.1-3.4-7.5-7.5-7.5H39.3v1.9H39v31.4h3.8L42.9,49.1L42.9,49.1z M58.4,35.9v5.6c0,2.1-1.7,3.7-3.7,3.7H42.9V32.1h11.8
	C56.7,32.2,58.4,33.9,58.4,35.9z"/>
</svg>
